X:1
T:Rapture (Humphreys), 66.9 D
T:Rapture (Humphreys), 66.9 D
T:R. D. Humphreys (1826-?)
T:Public Domain Courtesy of the Cyber Hymnal™
C:R. D. Humphreys (1826-?)
Z:Public Domain
Z:Courtesy of the Cyber Hymnal™
%%score ( 1 2 ) ( 3 4 )
L:1/8
Q:1/4=110
M:4/4
K:E
V:1 treble 
V:2 treble 
V:3 bass 
V:4 bass 
V:1
 E[DF] | [EG]2 [EG][EG] [EB]2 [DA][EG] | F2 F[^EG] [FA]2 [DG][DF] | E2 [CE][CF] [B,G]2 [CF][CE] | %4
 B,6 [EG][DA] x4 | [EB]2 [Ee][Ec] [EB]2 F[EG] | A2 [Ec][EA] [DG]2 E[EG] | %7
 [DB]2 [EG]E ([FA][EG])[EF][DF] | E6 |] %9
V:2
 E x | x8 | x8 | x8 | B,6 x6 | x8 | (CF) x6 | x3 E x4 | E6 |] %9
V:3
 [E,G,][E,A,] | (B,E)[E,D][E,C] [G,B,]2 [F,B,][E,B,] | [A,C]2 [A,C][G,B,] [F,C]2 [B,,B,][B,,A,] | %3
 [C,G,]2 [A,,A,][A,,C] [G,,D]2 [A,,C][A,,C] | B,6 [E,G,]2 [F,A,]2 [E,B,][F,B,] | %5
 [G,B,]2 [A,C]A, [G,B,]2 [D,B,][E,B,] | [F,A,]2 [F,A,][F,C] [G,^B,]2 [C,C][E,C] | %7
 [G,B,]2 [G,B,][A,C] C2 [A,C]B, | [E,G,]6 |] %9
V:4
 x2 | E,2 x6 | x8 | x8 | [B,,-D,F,]2 B,,4 x6 | x8 | x8 | x4 (F,G,) x2 | x6 |] %9

